resources/images/backup_tips_img.svg

<svg width="95" height="92" viewBox="0 0 95 92" fill="none" xmlns="http://www.w3.org/2000/svg">
<path fill-rule="evenodd" clip-rule="evenodd" d="M90.5297 44.88C90.1297 33.4 85.4597 22.48 77.4397 14.33C69.0397 5.79 57.6497 1 45.7797 1C33.9097 1 22.5097 5.79 14.1097 14.33C9.08973 19.44 5.38973 25.63 3.21973 32.37L7.11973 32.69C9.13973 26.87 12.4197 21.51 16.7897 17.06C24.4697 9.25 34.8997 4.87 45.7597 4.87C56.6197 4.87 67.0497 9.26 74.7297 17.06C82.0397 24.49 86.2997 34.43 86.6997 44.88H83.1897L88.5897 52L93.9897 44.88H90.5197H90.5297Z" fill="#FF7C3F"/>
<path fill-rule="evenodd" clip-rule="evenodd" d="M87.87 59.31C85.85 65.13 82.57 70.49 78.2 74.94C70.52 82.75 60.09 87.13 49.23 87.13C38.37 87.13 27.94 82.74 20.26 74.94C12.95 67.51 8.69 57.57 8.29 47.12H11.8L6.4 40L1 47.12H4.47C4.87 58.6 9.54 69.52 17.56 77.67C25.96 86.2 37.35 91 49.22 91C61.09 91 72.48 86.21 80.88 77.67C85.9 72.56 89.6 66.37 91.77 59.63L87.87 59.31Z" fill="#FF7C3F"/>
</svg>

<svg width="95" height="92" xmlns="http://www.w3.org/2000/svg" data-name="图层 1">

 <g>
  <title>Layer 1</title>
  <path fill-rule="evenodd" fill="#009688" d="m90.53,44.88c-0.4,-11.48 -5.07,-22.4 -13.09,-30.55c-8.4,-8.54 -19.79,-13.33 -31.66,-13.33s-23.27,4.79 -31.67,13.33c-5.02,5.11 -8.72,11.3 -10.89,18.04l3.9,0.32c2.02,-5.82 5.3,-11.18 9.67,-15.63c7.68,-7.81 18.11,-12.19 28.97,-12.19s21.29,4.39 28.97,12.19c7.31,7.43 11.57,17.37 11.97,27.82l-3.51,0l5.4,7.12l5.4,-7.12l-3.47,0l0.01,0z" class="cls-1" id="path2"/>
  <path fill-rule="evenodd" fill="#009688" d="m87.87,59.31c-2.02,5.82 -5.3,11.18 -9.67,15.63c-7.68,7.81 -18.11,12.19 -28.97,12.19s-21.29,-4.39 -28.97,-12.19c-7.31,-7.43 -11.57,-17.37 -11.97,-27.82l3.51,0l-5.4,-7.12l-5.4,7.12l3.47,0c0.4,11.48 5.07,22.4 13.09,30.55c8.4,8.53 19.79,13.33 31.66,13.33s23.26,-4.79 31.66,-13.33c5.02,-5.11 8.72,-11.3 10.89,-18.04l-3.9,-0.32z" class="cls-1" id="path1"/>
 </g>
</svg>
